icons/1_Primary/Cloudron.svg

<svg width="1024" height="1024" fill="none" xmlns="http://www.w3.org/2000/svg"><g clip-path="url(#a)"><path d="M512 1024c282.77 0 512-229.23 512-512S794.77 0 512 0 0 229.23 0 512s229.23 512 512 512Z" fill="#9ABEFF"/><path d="M647.82 273.49c-29.29-17.25-241.66-17.55-271-.37C347.48 290.3 241 477.2 241 511.63c0 34.43 105.89 221.63 135.18 238.88 29.29 17.25 241.66 17.55 271 .37C676.52 733.7 783 546.8 783 512.38c0-34.42-105.89-221.64-135.18-238.89Zm-53.14 175.93c0 19.11-15.23 34.6-34 34.6h-55a33.544 33.544 0 0 1-7.66-.89v57.75a33.544 33.544 0 0 1 7.66-.89h55c18.79 0 34 15.49 34 34.6v55.89c0 19.11-15.23 34.6-34 34.6h-55c-18.79 0-34-15.49-34-34.6v-56.83c-2.511.59-5.081.889-7.66.89h-55c-18.79 0-34-15.49-34-34.6v-55.88c0-19.11 15.23-34.6 34-34.6h55c2.579.001 5.149.3 7.66.89v-56.82c0-19.11 15.23-34.6 34-34.6h55c18.79 0 34 15.49 34 34.6v55.89Z" fill="#fff"/></g><defs><clipPath id="a"><path fill="#fff" d="M0 0h1024v1024H0z"/></clipPath></defs></svg>

<svg width="1024" height="1024" viewBox="0 0 1024 1024" fill="none" xmlns="http://www.w3.org/2000/svg">
<g clip-path="url(#clip0_2_1821)">
<path d="M512 1024C794.77 1024 1024 794.77 1024 512C1024 229.23 794.77 0 512 0C229.23 0 0 229.23 0 512C0 794.77 229.23 1024 512 1024Z" fill="#9ABEFF"/>
<path d="M647.82 273.49C618.53 256.24 406.16 255.94 376.82 273.12C347.48 290.3 241 477.2 241 511.63C241 546.06 346.89 733.26 376.18 750.51C405.47 767.76 617.84 768.06 647.18 750.88C676.52 733.7 783 546.8 783 512.38C783 477.96 677.11 290.74 647.82 273.49ZM594.68 449.42C594.68 468.53 579.45 484.02 560.68 484.02H505.68C503.101 484.019 500.531 483.72 498.02 483.13V540.88C500.531 540.29 503.101 539.991 505.68 539.99H560.68C579.47 539.99 594.68 555.48 594.68 574.59V630.48C594.68 649.59 579.45 665.08 560.68 665.08H505.68C486.89 665.08 471.68 649.59 471.68 630.48V573.65C469.169 574.24 466.599 574.539 464.02 574.54H409.02C390.23 574.54 375.02 559.05 375.02 539.94V484.06C375.02 464.95 390.25 449.46 409.02 449.46H464.02C466.599 449.461 469.169 449.76 471.68 450.35V393.53C471.68 374.42 486.91 358.93 505.68 358.93H560.68C579.47 358.93 594.68 374.42 594.68 393.53V449.42Z" fill="white"/>
</g>
<defs>
<clipPath id="clip0_2_1821">
<rect width="1024" height="1024" fill="white"/>
</clipPath>
</defs>
</svg>
